polaris-icons/icons/new-icons/BillingStatementDollarMajor.svg

<svg width="20" height="20" viewBox="0 0 20 20" fill="none" xmlns="http://www.w3.org/2000/svg">
<path fill-rule="evenodd" clip-rule="evenodd" d="M4 16C4 16.6101 4.36958 17.1595 4.93475 17.3894C5.49992 17.6193 6.14804 17.484 6.57399 17.0472L7.74999 15.841L8.926 17.0472C9.20832 17.3367 9.59559 17.5 10 17.5C10.4044 17.5 10.7917 17.3367 11.074 17.0472L12.25 15.841L13.426 17.0472C13.852 17.484 14.5001 17.6193 15.0652 17.3894C15.6304 17.1595 16 16.6101 16 16V5C16 3.61929 14.8807 2.5 13.5 2.5H6.5C5.11929 2.5 4 3.61929 4 5V16ZM5.5 16L7.034 14.4267C7.42647 14.0242 8.07353 14.0242 8.46599 14.4267L10 16L11.534 14.4267C11.9265 14.0242 12.5735 14.0242 12.966 14.4267L14.5 16V5C14.5 4.44772 14.0523 4 13.5 4H6.5C5.94772 4 5.5 4.44772 5.5 5V16ZM9.5 6C8.39543 6 7.5 6.89543 7.5 8C7.5 9.10457 8.39543 10 9.5 10H10.5C10.7761 10 11 10.2239 11 10.5C11 10.7761 10.7761 11 10.5 11H8.25C7.83579 11 7.5 11.3358 7.5 11.75C7.5 12.1642 7.83579 12.5 8.25 12.5H9V12.75C9 13.1642 9.33579 13.5 9.75 13.5C10.1642 13.5 10.5 13.1642 10.5 12.75V12.5C11.6046 12.5 12.5 11.6046 12.5 10.5C12.5 9.39543 11.6046 8.5 10.5 8.5H9.5C9.22386 8.5 9 8.27614 9 8C9 7.72386 9.22386 7.5 9.5 7.5H11.75C12.1642 7.5 12.5 7.16421 12.5 6.75C12.5 6.33579 12.1642 6 11.75 6H11V5.75C11 5.33579 10.6642 5 10.25 5C9.83579 5 9.5 5.33579 9.5 5.75V6Z" fill="#4A4A4A"/>
</svg>

<svg viewBox="0 0 20 20" xmlns="http://www.w3.org/2000/svg"><path fill-rule="evenodd" d="M4 16a1.5 1.5 0 0 0 2.574 1.047l1.176-1.206 1.176 1.206a1.5 1.5 0 0 0 2.148 0l1.176-1.206 1.176 1.206a1.5 1.5 0 0 0 2.574-1.047v-11a2.5 2.5 0 0 0-2.5-2.5h-7a2.5 2.5 0 0 0-2.5 2.5v11Zm1.5 0 1.534-1.573a1 1 0 0 1 1.432 0l1.534 1.573 1.534-1.573a1 1 0 0 1 1.432 0l1.534 1.573v-11a1 1 0 0 0-1-1h-7a1 1 0 0 0-1 1v11Zm4-10a2 2 0 1 0 0 4h1a.5.5 0 0 1 0 1h-2.25a.75.75 0 0 0 0 1.5h.75v.25a.75.75 0 0 0 1.5 0v-.25a2 2 0 1 0 0-4h-1a.5.5 0 0 1 0-1h2.25a.75.75 0 0 0 0-1.5h-.75v-.25a.75.75 0 0 0-1.5 0v.25Z" fill="#5C5F62"/></svg>
